#define mpwshell_width 32
#define mpwshell_height 32
#define mpwshell_x_hot 0
#define mpwshell_y_hot 0
static char mpwshell_bits[] = {
   0xff, 0xff, 0x1f, 0x00, 0x01, 0x00, 0x10, 0x00, 0xff, 0xff, 0x1f, 0x00,
   0x01, 0x00, 0xf0, 0xff, 0x01, 0x00, 0x10, 0x80, 0x31, 0x65, 0xf2, 0xff,
   0x49, 0x95, 0x12, 0x80, 0x49, 0x95, 0x12, 0xbe, 0x31, 0x65, 0xf2, 0xa3,
   0x01, 0x00, 0x10, 0xa2, 0x01, 0x00, 0x10, 0xbe, 0xf9, 0xff, 0xff, 0x88,
   0x09, 0x00, 0x80, 0x88, 0xf9, 0xff, 0xff, 0x88, 0x09, 0x00, 0x80, 0x9c,
   0x09, 0x00, 0x80, 0xa2, 0xe9, 0xff, 0x81, 0xa2, 0x0f, 0x00, 0x80, 0xa2,
   0xc8, 0xff, 0x81, 0x9c, 0x08, 0x00, 0xfc, 0x80, 0x08, 0xff, 0x03, 0xff,
   0x08, 0x00, 0x01, 0x02, 0xc8, 0xff, 0x0c, 0x04, 0x08, 0xc0, 0x13, 0x08,
   0x88, 0x7f, 0xfe, 0xf1, 0x08, 0x40, 0x0c, 0xe0, 0x08, 0x80, 0x00, 0xe0,
   0x08, 0x00, 0x01, 0xe0, 0xf8, 0xff, 0x07, 0xe0, 0x00, 0x00, 0xf8, 0xe7,
   0x00, 0x00, 0x00, 0xf8, 0x00, 0x00, 0x00, 0xe0};
