#define mpwshell_m_width 32
#define mpwshell_m_height 32
#define mpwshell_m_x_hot 0
#define mpwshell_m_y_hot 0
static char mpwshell_m_bits[] = {
   0xff, 0xff, 0x1f, 0x00, 0xff, 0xff, 0x1f, 0x00, 0xff, 0xff, 0x1f, 0x00,
   0xff, 0xff, 0xff, 0xff, 0xff, 0xff, 0xff, 0xff, 0xff, 0xff, 0xff, 0xff,
   0xff, 0xff, 0xff, 0xff, 0xff, 0xff, 0xff, 0xff, 0xff, 0xff, 0xff, 0xff,
   0xff, 0xff, 0xff, 0xff, 0xff, 0xff, 0xff, 0xff, 0xff, 0xff, 0xff, 0xff,
   0xff, 0xff, 0xff, 0xff, 0xff, 0xff, 0xff, 0xff, 0xff, 0xff, 0xff, 0xff,
   0xff, 0xff, 0xff, 0xff, 0xff, 0xff, 0xff, 0xff, 0xff, 0xff, 0xff, 0xff,
   0xf8, 0xff, 0xff, 0xff, 0xf8, 0xff, 0xff, 0xff, 0xf8, 0xff, 0xff, 0xff,
   0xf8, 0xff, 0xff, 0x03, 0xf8, 0xff, 0xff, 0x07, 0xf8, 0xff, 0xff, 0x0f,
   0xf8, 0xff, 0xff, 0xff, 0xf8, 0xff, 0xff, 0xff, 0xf8, 0xff, 0xff, 0xff,
   0xf8, 0xff, 0xff, 0xff, 0xf8, 0xff, 0xff, 0xff, 0x00, 0x00, 0xf8, 0xff,
   0x00, 0x00, 0x00, 0xf8, 0x00, 0x00, 0x00, 0xe0};
