/* XPM */
static char * mpwshell_xpm[] = {
/* width height ncolors cpp [x_hot y_hot] */
"32 32 3 1 -1 -1",
/* colors */
" 	s iconColor1	m black	c black",
".	s none	m none	c none",
"X	s iconColor2	m white	c white",
/* pixels */
"                     ...........",
" XXXXXXXXXXXXXXXXXXX ...........",
"                     ...........",
" XXXXXXXXXXXXXXXXXXX            ",
" XXXXXXXXXXXXXXXXXXX XXXXXXXXXX ",
" XXX  XX X XX  XX XX            ",
" XX XX X X X XX X XX XXXXXXXXXX ",
" XX XX X X X XX X XX XXXX     X ",
" XXX  XX X XX  XX XX      XXX X ",
" XXXXXXXXXXXXXXXXXXX XXXX XXX X ",
" XXXXXXXXXXXXXXXXXXX XXXX     X ",
" XX                     XXX XXX ",
" XX XXXXXXXXXXXXXXXXXXX XXX XXX ",
" XX                     XXX XXX ",
" XX XXXXXXXXXXXXXXXXXXX XX   XX ",
" XX XXXXXXXXXXXXXXXXXXX X XXX X ",
" XX X            XXXXXX X XXX X ",
"    XXXXXXXXXXXXXXXXXXX X XXX X ",
"... XX           XXXXXX XX   XX ",
"... XXXXXXXXXXXXXX      XXXXXXX ",
"... XXXX          XXXXXX        ",
"... XXXXXXXXXXXX XXXXXXXX ......",
"... XX          XX  XXXXXX .....",
"... XXXXXXXXXX    XX XXXXXX ....",
"... XXX        XX        XXX    ",
"... XXXXXXXXXX XXX  XXXXXXXXX   ",
"... XXXXXXXXXXX XXXXXXXXXXXXX   ",
"... XXXXXXXXXXXX XXXXXXXXXXXX   ",
"...                XXXXXXXXXX   ",
"...................        XX   ",
"...........................     ",
".............................   "};
